packages/assets/static/images/icons/flickr-logo.svg

<svg width="24" height="24" viewBox="0 0 24 24" xmlns="http://www.w3.org/2000/svg">
<path d="M6.96316 17.0963C4.18816 17.0963 1.93066 14.8387 1.93066 12.0637C1.93066 9.28875 4.18816 7.03125 6.96316 7.03125C9.73816 7.03125 11.9957 9.28875 11.9957 12.0637C11.9957 14.8387 9.73816 17.0963 6.96316 17.0963ZM6.96316 9.28031C5.42848 9.28031 4.18066 10.5281 4.18066 12.0628C4.18066 13.5975 5.42848 14.8453 6.96316 14.8453C8.49785 14.8453 9.74566 13.5975 9.74566 12.0628C9.74566 10.5281 8.49691 9.28031 6.96316 9.28031Z"/>
<path d="M17.72 17.0963C14.945 17.0963 12.6875 14.8387 12.6875 12.0637C12.6875 9.28875 14.945 7.03125 17.72 7.03125C20.495 7.03125 22.7525 9.28875 22.7525 12.0637C22.7525 14.8387 20.495 17.0963 17.72 17.0963ZM17.72 9.28031C16.1854 9.28031 14.9375 10.5281 14.9375 12.0628C14.9375 13.5975 16.1863 14.8453 17.72 14.8453C19.2538 14.8453 20.5025 13.5975 20.5025 12.0628C20.5025 10.5281 19.2547 9.28031 17.72 9.28031Z"/>
</svg>

<svg viewBox="0 0 24 24" xmlns="http://www.w3.org/2000/svg" aria-hidden="true" fill="currentColor" height="24px" width="24px"><path d="M6.963 17.096a5.04 5.04 0 0 1-5.032-5.032A5.04 5.04 0 0 1 6.963 7.03a5.04 5.04 0 0 1 5.033 5.033 5.04 5.04 0 0 1-5.033 5.032m0-7.816a2.785 2.785 0 0 0-2.782 2.783 2.785 2.785 0 0 0 2.782 2.782 2.785 2.785 0 0 0 2.783-2.782A2.786 2.786 0 0 0 6.963 9.28m10.757 7.816a5.04 5.04 0 0 1-5.032-5.032A5.04 5.04 0 0 1 17.72 7.03a5.04 5.04 0 0 1 5.033 5.033 5.04 5.04 0 0 1-5.033 5.032m0-7.816a2.785 2.785 0 0 0-2.782 2.783 2.786 2.786 0 0 0 2.782 2.782 2.786 2.786 0 0 0 2.783-2.782A2.785 2.785 0 0 0 17.72 9.28"/></svg>
